X:25
T:British man of war - Dingle
%%VWML:SBG-1-2-286-0
F:http://www.vwml.org/record/SBG/1/2/286
Z:Original Sibelius transcriptions by M. & S. Graebe
L:1/4
M:4/4
I:linebreak $
K:C
V:1 treble nm="P1"
V:2 treble 
V:1
 G | c c B B | A G E C/E/ | G3/2 F/ D D | C3 C | D D D E |$ F E F G | c c d d | G3 C | G G d ^c | %10
 B F c d |$ c f/e/ d e | c3 c/d/ | e e c c | A G E C/E/ | G G/F/ D D | C3 x | %17
V:2
 x | x4 | x4 | x4 | x4 | x4 |$ x4 | x4 | x4 | x4 | F E F G |$ c c d d | x4 | x4 | x4 | x4 | x4 | %17

